app/component-library/components/Icons/Icon/assets/swap-vertival.svg

<svg width="24" height="24" viewBox="0 0 24 24" fill="none" xmlns="http://www.w3.org/2000/svg">
<path d="M10.731 7.46997C10.541 7.46997 10.351 7.4 10.201 7.25L7.01096 4.06L3.82095 7.25C3.53095 7.54 3.05096 7.54 2.76096 7.25C2.47096 6.96 2.47096 6.48 2.76096 6.19L6.48099 2.46997C6.62099 2.32997 6.81096 2.25 7.01096 2.25C7.21096 2.25 7.40099 2.32997 7.54099 2.46997L11.261 6.19C11.551 6.48 11.551 6.96 11.261 7.25C11.111 7.4 10.921 7.46997 10.731 7.46997Z" fill="currentColor"/>
<path d="M7.01123 21.75C6.60123 21.75 6.26123 21.41 6.26123 21V3C6.26123 2.59 6.60096 2.25 7.01096 2.25C7.42096 2.25 7.76123 2.59 7.76123 3V21C7.76123 21.41 7.42123 21.75 7.01123 21.75Z" fill="currentColor"/>
<path d="M17.5608 21.7502C17.3608 21.7502 17.1707 21.6702 17.0307 21.5302L13.3108 17.8102C13.0208 17.5202 13.0208 17.0402 13.3108 16.7502C13.6008 16.4602 14.0808 16.4602 14.3708 16.7502L17.5608 19.9402L20.7507 16.7502C21.0407 16.4602 21.5208 16.4602 21.8108 16.7502C22.1008 17.0402 22.1008 17.5202 21.8108 17.8102L18.0907 21.5302C17.9507 21.6702 17.7508 21.7502 17.5608 21.7502Z" fill="currentColor"/>
<path d="M17.5503 21.75C17.1403 21.75 16.8003 21.41 16.8003 21V3C16.8003 2.59 17.1403 2.25 17.5503 2.25C17.9603 2.25 18.3003 2.59 18.3003 3V21C18.3003 21.41 17.9703 21.75 17.5503 21.75Z" fill="currentColor"/>
</svg>

<svg xmlns="http://www.w3.org/2000/svg" width="24" height="24" viewBox="0 0 24 24" fill="none"><path fill="currentColor" d="M10.731 7.47c-.19 0-.38-.07-.53-.22l-3.19-3.19-3.19 3.19c-.29.29-.77.29-1.06 0a.754.754 0 0 1 0-1.06l3.72-3.72a.75.75 0 0 1 1.06 0l3.72 3.72c.29.29.29.77 0 1.06-.15.15-.34.22-.53.22Z"/><path fill="currentColor" d="M7.011 21.75c-.41 0-.75-.34-.75-.75V3c0-.41.34-.75.75-.75s.75.34.75.75v18c0 .41-.34.75-.75.75ZM17.56 21.75a.75.75 0 0 1-.53-.22l-3.72-3.72a.754.754 0 0 1 0-1.06c.29-.29.77-.29 1.06 0l3.19 3.19 3.19-3.19c.29-.29.77-.29 1.06 0 .29.29.29.77 0 1.06l-3.72 3.72c-.14.14-.34.22-.53.22Z"/><path fill="currentColor" d="M17.55 21.75c-.41 0-.75-.34-.75-.75V3c0-.41.34-.75.75-.75s.75.34.75.75v18c0 .41-.33.75-.75.75Z"/></svg>
